X: 5834
T: Callan Lasses, The
R: reel
M: 4/4
K: Dmajor
|:AD (3DDD ADFD|ADFA ~B3 d|AD (3DDD ADFA|1 GE (3EEE =c2 dB:|2 GE (3EEE =c2 ^c2||
|:d2 fd AdFA|(3ddd fd cdeg|fdec dBAF|GE (3EEE GABd:|

